X: 29385
T: Next Time I'll Take The ******* Eurostar
R: reel
M: 4/4
K: Eminor
B>EG>cB2A>G|A>BG>A B>GF>E|B>EG>cB2A>G|A>BG>F E3B-|
B>EG>cB2A>G|A>BG>A B>GF>E|B>EG>cB2A>G|A>BG>F E3B-||
B>EE>F G>FE>B|A>GF>G E<FD<E|C2E>F G>FE>B|A>GF>G E4|
B>EE>F G>FE>B|A>GF>G E<FD<E|C2E>F G>FE>B|A>GF>G E3 B||
c>e-e>c Bd-d>B|A/B/A G>A B>GE>f|g>af>g e2d>c|B3 B3c(3d/c/B/|
c4 e>cG>c|e>fg>a f>ge2|d>cB3cB2-|B>cB>A F>GE2||

